X: 1
T: the Bonnie House of Airlie
R: march
Z: 2008 John Chambers <jc@trillian.mit.edu>
S: http://cityofoaks.home.netcom.com/tunes/tunescores.html
M: 4/4
L: 1/8
K: D
G | A2 AB d2 dc | BA Bd e2 (3def | A3  B df ed | B4      A3 :|
d | e2 ef a3  f | gf ef d4       | e2 ef a3  g | f3 g/f/ e3 ||
d | e2 ef a3  f | gf ed e3 (3def | A3  B df ed | B4      A3 |]
